static/logos/heap-glyph-color.svg

<svg width="32" height="50" viewBox="0 0 32 50" fill="none" xmlns="http://www.w3.org/2000/svg">
<g clip-path="url(#clip0_1_2486)">
<path d="M6.74361 10.8369H1.04688V38.7507H6.74361V10.8369Z" fill="black"/>
<path d="M19.0874 0.201233H13.3906V21.4689H19.0874V0.201233Z" fill="black"/>
<path d="M19.0874 28.1191H13.3906V49.3868H19.0874V28.1191Z" fill="#31D891"/>
<path d="M31.431 10.8369H25.7344V38.7507H31.431V10.8369Z" fill="#31D891"/>
</g>
<defs>
<clipPath id="clip0_1_2486">
<rect width="31.8182" height="50" fill="white"/>
</clipPath>
</defs>
</svg>

<svg xmlns="http://www.w3.org/2000/svg" width="40.96" height="64" fill="none" viewBox="0 0 32 50"><g clip-path="url(#a)"><path fill="#000" d="M6.744 10.837H1.047V38.75h5.697V10.837ZM19.087.201h-5.696V21.47h5.696V.2Z"/><path fill="#31D891" d="M19.087 28.12h-5.696v21.267h5.696V28.119ZM31.431 10.837h-5.697V38.75h5.697V10.837Z"/></g><defs><clipPath id="a"><path fill="#fff" d="M0 0h31.818v50H0z"/></clipPath></defs></svg>
